Catalina-light/actions/22/im-facebook.svg

<svg xmlns="http://www.w3.org/2000/svg" viewBox="0 0 22 22">
  <defs id="defs3051">
    <style type="text/css" id="current-color-scheme">
      .ColorScheme-Text {
        color:#4d4d4d
      }
      </style>
  </defs>
 <path 
     style="fill:currentColor;fill-opacity:1;stroke:none"      
	 class="ColorScheme-Text"
        d="M 11 3 C 6.5888182 3 3 6.5888182 3 11 C 3 15.41086 6.5888182 19 11 19 C 15.41086 19 19 15.41086 19 11 C 19 6.5888182 15.411504 3 11 3 z M 11.705078 6.6347656 L 13.134766 6.640625 L 13.134766 8.2324219 L 12.097656 8.2324219 C 11.928801 8.2324219 11.689453 8.3174866 11.689453 8.6796875 L 11.689453 9.6425781 L 13.158203 9.6425781 L 12.990234 11.28125 L 11.6875 11.28125 L 11.6875 15.919922 L 9.7597656 15.919922 L 9.7597656 11.28125 L 8.8417969 11.28125 L 8.8417969 9.6425781 L 9.7597656 9.6425781 L 9.7597656 8.5820312 C 9.7597656 7.8225049 10.119644 6.6347656 11.705078 6.6347656 z "
     />
</svg>

<svg viewBox="0 0 22 22" xmlns="http://www.w3.org/2000/svg">
<defs>
<style id="current-color-scheme" type="text/css">.ColorScheme-Text {
        color:#363636
      }</style>
</defs>
<path class="ColorScheme-Text" d="m11 3c-4.4112 0-8 3.5888-8 8 0 4.4109 3.5888 8 8 8 4.4109 0 8-3.5891 8-8 0-4.4112-3.5885-8-8-8zm0.70508 3.6348 1.4297 0.0058594v1.5918h-1.0371c-0.16886 0-0.4082 0.085065-0.4082 0.44727v0.96289h1.4688l-0.16797 1.6387h-1.3027v4.6387h-1.9277v-4.6387h-0.91797v-1.6387h0.91797v-1.0605c0-0.75953 0.35988-1.9473 1.9453-1.9473z" fill="#363636"/>
</svg>
